!!!!SEGMENT: pl-kk--kk-i-7--078_krener-jan--contere-domine.krn
!!!cenid: 16xx:917
!!!COM: Krener, Jan
!!!COM-rismid: pe30105858
!!!CDT: <1630->1669
!!!CNT: Polish
!!!OTL: Contere Domine
!!!PDT: 1669
!!!AGN: Sacred
!!!SMS-siglum: PL-Kk
!!!SMS-shelfmark: Kk.I.7
!!!SMS-shelfwork: 078 W
!!!SMS-variant:
!!!SMS-altvar:
!!!NIFC-rismid: 300258155
!!!URL-scan: http://repozytorium.nifc.pl/skany/pl-kk-nut--i-7
!!!ONB-nifc: UWAGA: C (skan 0067-0068, s.127-128), A (brak), T (0231, s.124), B (0317-0318, s.120-122). Następny utwór: Tibi laus tibi gloria
**kern	**text	**kern	**text	**kern	**kern	**text
*part4	*part4	*part3	*part3	*part2	*part1	*part1
*staff4	*staff4	*staff3	*staff3	*staff2	*staff1	*staff1
*I"[BASSVS.]	*	*I"[TENOR.]	*	*I"[ALTVS.]	*I"[CANTVS.]	*
*I'[B]	*	*I'[T]	*	*I'[A]	*I'[S]	*
*clefF4	*	*clefC4	*	*clefC4	*clefC3	*
*k[]	*	*k[]	*	*k[]	*k[]	*
*M2/1	*	*M2/1	*	*M2/1	*M2/1	*
*met(C|)	*	*met(C|)	*	*	*met(C|)	*
=1-	=1-	=1-	=1-	=1-	=1-	=1-
*	*	*lig	*	*	*	*
!	!	!	!	!	!LO:TX:t=P:problem:all\right:global	!
!	!	!LO:TX:a:t=Eiusde(m) Authoris \nD. S. Joannis Krener S.R.M \nMusic(i) 1669 1. Xbris fact(um)	!	!LO:TX:t=P:problem:brak partii w źródle	!LO:TX:t=P:problem:kreska pseudotaktowa	!
0r	.	1E/	Con-	0ryy	1r	.
!	!	!	!	!	!LO:TX:t=P:problem:oddech jako rozdzielacz słów, przeważnie na wysokości dźwięku poprzedzającego:global	!
.	.	1F/	.	.	(2A,/	Con-
.	.	.	.	.	1f\	.
*	*	*Xlig	*	*	*	*
=2-	=2-	=2-	=2-	=2-	=2-	=2-
!LO:TX:t=P:problem:kreska pseudotaktowa	!	!	!	!	!	!
1r	.	0G/	.	0ryy	.	.
*	*	*	*	*	*2\right	*
!	!	!	!	!	!LO:TX:t=P:problem:kreska pseudotaktowa	!
.	.	.	.	.	2e\	-te-
(<2BB/	Con-	.	.	.	2d\	-re
1E\)	.	.	.	.	2B/	Do-
=3-	=3-	=3-	=3-	=3-	=3-	=3-
*	*	*lig	*	*	*	*
.	.	1F/	-te-	0ryy	2c/	.
!	!	!	!	!	!LO:TX:t=P:problem:kreska pseudotaktowa	!
!LO:TX:t=P:problem:kreska pseudotaktowa	!	!	!	!	!LO:SIC:v:t=custos e	!
2D/	-te-	.	.	.	2d\	-mi-
!	!	!	!	!	!LO:LB:g=original	!
2D/	-re	1E/	.	.	2e\	-ne
*	*	*	*	*	*	*ij
1C/	Con-	.	.	.	2g\	Con-
*	*	*Xlig	*	*	*	*
=4-	=4-	=4-	=4-	=4-	=4-	=4-
*	*	*lig	*	*	*	*
.	.	1D/	-re	0ryy	2.f\	-te-
!LO:TX:t=P:problem:kreska pseudotaktowa	!	!	!	!	!	!
2BB/	-te-	.	.	.	.	.
!	!	!	!	!	!LO:TX:t=P:problem:kreska pseudotaktowa	!
.	.	.	.	.	4f\	-re
!	!	!LO:TX:t=P:problem:kreska pseudotaktowa	!	!	!	!
2C/	-re	1C/,	.	.	1e\	Do-
4AA/	Do-	.	.	.	.	.
4GG/	.	.	.	.	.	.
!LO:TX:t=P:problem:kreska pseudotaktowa	!	!	!	!	!	!
*	*	*Xlig	*	*	*	*
=5-	=5-	=5-	=5-	=5-	=5-	=5-
*	*	*lig	*	*	*	*
2FF/	.	1D/	Do-	0ryy	4f\	mi-
.	.	.	.	.	4e\	.
!	!	!	!	!	!LO:TX:t=P:problem:kreska pseudotaktowa	!
2GG/	-mi-	.	.	.	2d\	.
2C/	-ne	1E/	.	.	4c/	.
.	.	.	.	.	4d\	.
4C/	Do-	.	.	.	4e\	.
4BB/	.	.	.	.	4d\	.
!LO:TX:t=P:problem:kreska pseudotaktowa	!	!	!	!	!	!
*	*	*Xlig	*	*	*	*
=6-	=6-	=6-	=6-	=6-	=6-	=6-
2AA/	.	1E/	-mi-	0ryy	2c#X/	.
!LO:TX:t=P:problem:kreska pseudotaktowa	!	!	!	!	!	!
2GG#X/	-mi-	.	.	.	4B/	.
!	!	!	!	!	!LO:TX:t=P:problem:kreska pseudotaktowa	!
.	.	.	.	.	4d\	.
!	!	!LO:TX:t=P:problem:kreska pseudotaktowa	!	!	!	!
1AA/	-ne	1E/	-ne	.	2d\	.
.	.	.	.	.	2c#X/	.
=7-	=7-	=7-	=7-	=7-	=7-	=7-
!	!	!	!	!	!LO:TX:t=P:problem:kreska pseudotaktowa	!
2D/	for-	1F/	for-	0ryy	1d\	-ne
*	*	*	*	*	*	*Xij
2AA/	-ti-	.	.	.	.	.
2.BB-X/	-tu-	1D/	-ti-	.	0r	.
!LO:TX:t=P:problem:kreska pseudotaktowa	!	!	!	!	!	!
4C/	.	.	.	.	.	.
=8-	=8-	=8-	=8-	=8-	=8-	=8-
*	*	*lig	*	*	*	*
!	!	!	!	!	!LO:TX:t=P:problem:kreska pseudotaktowa	!
4D/	.	1F/	-tu-	0ryy	.	.
4E\	.	.	.	.	.	.
!LO:SIC:v:t=custos E	!	!	!	!	!	!
1F\	.	.	.	.	.	.
.	.	1G/	.	.	1r	.
!LO:LB:g=original	!	!	!	!	!	!
*2\right	*	*	*	*	*	*
2E\	-di-	.	.	.	.	.
!LO:TX:t=P:problem:kreska pseudotaktowa	!	!	!	!	!	!
*	*	*Xlig	*	*	*	*
=9-	=9-	=9-	=9-	=9-	=9-	=9-
*	*	*lig	*	*	*	*
1F\,	-nem	1A\	.	0ryy	2f\	for-
.	.	.	.	.	2c/	-ti-
*	*ij	*	*	*	*	*
2C/	for-	1G/	.	.	4e\	-tu-
.	.	.	.	.	4f\	.
2GG/	-ti-	.	.	.	4.g\	.
.	.	.	.	.	8g\	-di-
!LO:TX:t=P:problem:kreska pseudotaktowa	!	!	!	!	!LO:TX:t=P:problem:kreska pseudotaktowa	!
*	*	*Xlig	*	*	*	*
=10-	=10-	=10-	=10-	=10-	=10-	=10-
*	*	*lig	*	*	*	*
4BB-X/	-tu-	1F/	.	0ryy	4d\	-nem
4C/	.	.	.	.	4e\	.
1D\	.	.	.	.	4f\	.
.	.	.	.	.	8g\L	.
!	!	!	!	!	!LO:TX:t=P:problem:kreska pseudotaktowa	!
.	.	.	.	.	8a\J	.
!	!	!	!	!	!LO:SIC:v:t=custos d	!
.	.	1E/	.	.	2d\	.
!	!	!	!	!	!LO:LB:g=original	!
2C#X/	-di-	.	.	.	2r	.
!LO:TX:t=P:problem:kreska pseudotaktowa	!	!	!	!	!LO:TX:t=P:problem:kreska pseudotaktowa	!
*	*	*Xlig	*	*	*	*
=11-	=11-	=11-	=11-	=11-	=11-	=11-
*	*	*lig	*	*	*	*ij
2D/	-nem	1D/	-di-	0ryy	2d\	for-
!LO:TX:t=P:problem:kreska pseudotaktowa	!	!	!	!	!	!
2r	.	.	.	.	2A/	-ti-
2C/	for-	1E/	.	.	4c/	-tu-
.	.	.	.	.	4d\	.
2GG#X/	-ti-	.	.	.	4e\	.
.	.	.	.	.	4d\	.
!	!	!	!	!	!LO:TX:t=P:problem:kreska pseudotaktowa	!
*	*	*Xlig	*	*	*	*
=12-	=12-	=12-	=12-	=12-	=12-	=12-
4AA/	-tu-	1E/	-nem	0ryy	2.c/	.
4BB/	.	.	.	.	.	.
4C/	.	.	.	.	.	.
!LO:TX:t=P:problem:kreska pseudotaktowa	!	!	!	!	!	!
4D/	.	.	.	.	4c/	-di-
!	!	!LO:TX:t=P:problem:kreska pseudotaktowa	!	!	!	!
4E\	.	1E/	i-	.	2B/	-nem
*	*	*	*	*	*	*Xij
4D/	.	.	.	.	.	.
!LO:TX:t=P:problem:kreska pseudotaktowa	!	!	!	!	!	!
2C#X/	.	.	.	.	1e\	i-
=13-	=13-	=13-	=13-	=13-	=13-	=13-
!	!	!LO:SIC:v:t=custos E	!	!	!	!
2.D/	.	1F/	-ni-	0ryy	.	.
.	.	.	.	.	4d\	-ni-
!	!	!	!	!	!LO:TX:t=P:problem:kreska pseudotaktowa	!
4D/	-di-	.	.	.	4d\	-mi-
!	!	!LO:LB:g=original	!	!	!	!
!LO:TX:t=P:problem:kreska pseudotaktowa	!	!	!	!	!	!
1AA/	-nem	1E/	-mi-	.	2d\	-co-
*	*Xij	*	*	*	*	*
.	.	.	.	.	1c\	.
=14-	=14-	=14-	=14-	=14-	=14-	=14-
1r	.	1D/	.	0ryy	.	.
!	!	!	!	!	!LO:TX:t=P:problem:kreska pseudotaktowa	!
.	.	.	.	.	2B/	.
2r	.	1C/	.	.	4c/	.
.	.	.	.	.	4G/	.
1C/	i-	.	.	.	2g\	.
=15-	=15-	=15-	=15-	=15-	=15-	=15-
*	*	*lig	*	*	*	*
.	.	1D/	-co-	0ryy	1f\	.
4BB/	-ni-	.	.	.	.	.
!LO:TX:t=P:problem:kreska pseudotaktowa	!	!	!	!	!	!
!LO:SIC:v:t=custos C	!	!	!	!	!	!
4BB/	-mi-	.	.	.	.	.
!LO:PB:g=original	!	!	!	!	!LO:TX:t=P:problem:kreska pseudotaktowa	!
4C/	-co-	1E/	.	.	1e\	-rum
4AA/	.	.	.	.	.	.
1A\	.	.	.	.	.	.
*	*	*Xlig	*	*	*	*
=16-	=16-	=16-	=16-	=16-	=16-	=16-
!	!	!LO:TX:t=P:problem:kreska pseudotaktowa	!	!	!	!
.	.	1E/	-rum	0ryy	2r	.
!LO:TX:t=P:problem:kreska pseudotaktowa	!	!	!	!	!	!
!LO:TX:t=P:problem:# above	!	!	!	!	!	!
*	*	*	*	*	*	*ij
2G#X\	.	.	.	.	1e\	i-
*	*	*lig	*	*	*	*
2A\	-rum	1F/	Ec-	.	.	.
1D\	i-	.	.	.	4d\	-ni-
!	!	!	!	!	!LO:TX:t=P:problem:kreska pseudotaktowa	!
.	.	.	.	.	4d\	-mi-
=17-	=17-	=17-	=17-	=17-	=17-	=17-
.	.	1E/	-cle-	0ryy	1.g\	-co-
4C#X/	-ni-	.	.	.	.	.
4C#/	-mi-	.	.	.	.	.
!LO:TX:t=P:problem:kreska pseudotaktowa	!	!	!	!	!	!
*	*	*Xlig	*	*	*	*
*	*	*lig	*	*	*	*
2D/	-co-	1D/	-ſi-	.	.	.
4FF,/	-rum	.	.	.	2f\	.
!LO:TX:t=P:problem:kreska pseudotaktowa	!	!	!	!	!	!
4GG/	Ec-	.	.	.	.	.
=18-	=18-	=18-	=18-	=18-	=18-	=18-
!	!	!	!	!	!LO:TX:t=P:problem:kreska pseudotaktowa	!
2AA/	-cle-	1C/	.	0ryy	1e\	.
4AA/	-ſi-	.	.	.	.	.
4GG/	-ae	.	.	.	.	.
!LO:TX:t=P:problem:kreska pseudotaktowa	!	!	!	!	!	!
*	*	*Xlig	*	*	*	*
*	*	*lig	*	*	*	*
2FF/	tu-	1D/	-ae	.	2d\	-rum
*	*	*	*	*	*	*Xij
!	!	!	!	!	!LO:SIC:v:t=custos B	!
4GG,/	-ae	.	.	.	2B/	Ec-
!LO:TX:t=P:problem:kreska pseudotaktowa	!	!	!	!	!	!
4GG/	Ec-	.	.	.	.	.
!	!	!	!	!	!LO:LB:g=original	!
=19-	=19-	=19-	=19-	=19-	=19-	=19-
2C/	-cle-	1E/	.	0ryy	2B/	-cle-
4C/	-ſi-	.	.	.	4A/	-ſi-
4BB/	-ae	.	.	.	4G#X/	-ae
!LO:TX:t=P:problem:kreska pseudotaktowa	!	!	!	!	!LO:TX:t=P:problem:# below	!
*	*	*Xlig	*	*	*	*
1AA/	tu-	1E/	Tu-	.	1c\	tu-
=20-	=20-	=20-	=20-	=20-	=20-	=20-
!LO:TX:t=P:problem:kreska pseudotaktowa	!	!LO:TX:t=P:problem:kreska pseudotaktowa	!	!	!LO:TX:t=P:problem:kreska pseudotaktowa	!
1EE/	-ae	1E/,	-ae	0ryy	1B/	-ae
*	*	*lig	*	*	*	*
1r	.	1E/	et	.	0r	.
=21-	=21-	=21-	=21-	=21-	=21-	=21-
4A\	et	1F/	.	0ryy	.	.
!LO:TX:a:t=f	!	!	!	!	!	!
!LO:TX:t=P:problem:4E poprawione na 4F	!	!	!	!	!	!
4F\	diſ-	.	.	.	.	.
4.A\	-per-	.	.	.	.	.
!LO:TX:t=P:problem:kreska pseudotaktowa	!	!	!	!	!	!
8c\	-ge	.	.	.	.	.
*	*	*Xlig	*	*	*	*
!LO:SIC:v:t=custos G	!	!	!	!	!	!
2B\	il-	0G/	.	.	4d\	et
.	.	.	.	.	4B/	diſ-
!LO:LB:g=original	!	!	!	!	!	!
4G\	-los	.	.	.	4.d\	-per-
!LO:TX:t=P:problem:kreska pseudotaktowa	!	!	!	!	!	!
4G\	diſ-	.	.	.	.	.
!	!	!	!	!	!LO:TX:t=P:problem:kreska pseudotaktowa	!
.	.	.	.	.	8g\	-ge
=22-	=22-	=22-	=22-	=22-	=22-	=22-
!	!	!LO:TX:t=P:problem:kreska pseudotaktowa	!	!	!	!
2C/	-per-	.	.	0ryy	2e\	il-
2C/	-ge	.	.	.	4e\	-los
!	!	!	!	!	!LO:TX:t=P:problem:kreska pseudotaktowa	!
.	.	.	.	.	4e\	.
*	*	*lig	*	*	*	*
4A\	et	1F/	diſ-	.	2c/	diſ-
4F\	diſ-	.	.	.	.	.
4.A\	-per-	.	.	.	4c/	-per-
.	.	.	.	.	4c/	-ge
!LO:TX:t=P:problem:kreska pseudotaktowa	!	!	!	!	!	!
8c\	-ge	.	.	.	.	.
=23-	=23-	=23-	=23-	=23-	=23-	=23-
2C/	il-	1E/	.	0ryy	2c/	il-
2C/	-los	.	.	.	2G/	-los
!	!	!	!	!	!LO:TX:t=P:problem:kreska pseudotaktowa	!
*	*	*Xlig	*	*	*	*
*	*ij	*lig	*	*	*	*ij
2.GG/	et	1D/	-per-	.	4d\	et
.	.	.	.	.	4B/	diſ-
.	.	.	.	.	4.d\	-per-
!LO:TX:t=P:problem:kreska pseudotaktowa	!	!	!	!	!	!
4GG/	diſ-	.	.	.	.	.
!	!	!	!	!	!LO:TX:t=P:problem:kreska pseudotaktowa	!
.	.	.	.	.	8g\	-ge
=24-	=24-	=24-	=24-	=24-	=24-	=24-
2AA/	-per-	1C/	.	0ryy	2e\	il-
4AA/	-ge	.	.	.	4e\	-los
4AA/	il-	.	.	.	4e\	diſ-
!	!	!	!	!	!LO:TX:t=P:problem:kreska pseudotaktowa	!
*	*	*Xlig	*	*	*	*
*	*	*lig	*	*	*	*
2FF/	-los	1D/	-ge	.	2f\	-per-
!LO:TX:t=P:problem:kreska pseudotaktowa	!	!	!	!	!	!
2GG/	diſ-	.	.	.	4d\	-ge
*	*	*	*	*	*	*Xij
!	!	!	!	!	!LO:TX:t=P:problem:kreska pseudotaktowa	!
.	.	.	.	.	4r	.
=25-	=25-	=25-	=25-	=25-	=25-	=25-
!	!	!LO:TX:t=P:problem:kreska pseudotaktowa	!	!	!	!
2C/	-per-	1E/	.	0ryy	4g\	et
.	.	.	.	.	4c/	diſ-
2C/	-ge	.	.	.	4.e\	-pe[r]-
*	*Xij	*	*	*	*	*
.	.	.	.	.	8g\	-[ge]
!	!	!	!	!	!LO:TX:t=P:problem:kreska pseudotaktowa	!
!	!	!	!	!	!LO:SIC:v:t=custos c	!
!	!	!	!	!	!LO:PB:g=original	!
*	*	*Xlig	*	*	*	*
4C/	et	1E/	il-	.	4c/	il-
4E\	diſ-	.	.	.	4c/	-los
*	*	*	*	*	*	*ij
4C/	-per-	.	.	.	4g\	et
!LO:TX:t=P:problem:kreska pseudotaktowa	!	!	!	!	!LO:TX:t=P:problem:kreska pseudotaktowa	!
4C/	-ge	.	.	.	4c/	diſ-
!	!	!LO:LB:g=original	!	!	!	!
=26-	=26-	=26-	=26-	=26-	=26-	=26-
!	!	!LO:TX:t=P:problem:kreska pseudotaktowa	!	!	!	!
!	!	!LO:SIC:v:t=custos F	!	!	!	!
2C/	il-	1E/	-los	0ryy	4.e\	-pe[r]-
.	.	.	.	.	8g\	-[ge]
4C,/	-los	.	.	.	2e\	il-
4C/	diſ-	.	.	.	.	.
*	*	*lig	*	*	*	*
!	!	!	!	!	!LO:TX:t=P:problem:kreska pseudotaktowa	!
2D/	-per-	1F/	in	.	1A/	-los
*	*	*	*	*	*	*Xij
!LO:TX:t=P:problem:kreska pseudotaktowa	!	!	!	!	!	!
!LO:SIC:v:t=custos d	!	!	!	!	!	!
2D,/	-ge	.	.	.	.	.
!LO:LB:g=original	!	!	!	!	!	!
=27-	=27-	=27-	=27-	=27-	=27-	=27-
!	!	!LO:TX:t=P:problem:kreska pseudotaktowa	!	!	!	!
2r	.	1D/	.	0ryy	0r	.
2.d\	in	.	.	.	.	.
*	*	*Xlig	*	*	*	*
*	*	*lig	*	*	*	*
.	.	1F/	Vir-	.	.	.
4c\	Vir-	.	.	.	.	.
4B\	-tu-	.	.	.	.	.
!LO:TX:t=P:problem:kreska pseudotaktowa	!	!	!	!	!	!
4A\	-te	.	.	.	.	.
=28-	=28-	=28-	=28-	=28-	=28-	=28-
2B\	tu-	1G/	.	0ryy	2r	.
2G\	-a	.	.	.	2.g\	in
!LO:TX:t=P:problem:kreska pseudotaktowa	!	!	!	!	!LO:TX:t=P:problem:kreska pseudotaktowa:między nutą a kropką	!
*	*	*Xlig	*	*	*	*
1r	.	1A\	.	.	.	.
.	.	.	.	.	4f\	Vir-
.	.	.	.	.	4f\	-tu-
.	.	.	.	.	4e\	-te
=29-	=29-	=29-	=29-	=29-	=29-	=29-
*	*ij	*lig	*	*	*	*
2.AA/	in	1A\	-tu-	0ryy	1e\	tu-
!LO:TX:t=P:problem:kreska pseudotaktowa	!	!	!	!	!	!
4AA/	Vir-	.	.	.	.	.
2BB/	-tu-	1G/	.	.	2d\	-a.
2C#X/	-te	.	.	.	2r	.
!	!	!	!	!	!LO:TX:t=P:problem:kreska pseudotaktowa	!
*	*	*Xlig	*	*	*	*
=30-	=30-	=30-	=30-	=30-	=30-	=30-
!LO:TX:t=P:problem:kreska pseudotaktowa	!	!	!	!	!	!
*	*	*lig	*	*	*	*
1D\	tu-	1F/	-te	0ryy	2r	.
*	*	*	*	*	*	*ij
.	.	.	.	.	2.a\	in
!	!	!LO:TX:t=P:problem:kreska pseudotaktowa	!	!	!	!
2AA,/	-a	1E/	.	.	.	.
.	.	.	.	.	4e\	Vir-
4AA/	in	.	.	.	4e\	-tu-
4GG/	.	.	.	.	4e\	-te
!	!	!	!	!	!LO:TX:t=P:problem:kreska pseudotaktowa	!
*	*	*Xlig	*	*	*	*
=31-	=31-	=31-	=31-	=31-	=31-	=31-
*	*	*lig	*	*	*	*
2FF/	Vir-	1D/	tu-	0ryy	4f\	tu-
.	.	.	.	.	4e\	-a.
*	*	*	*	*	*	*Xij
!LO:TX:t=P:problem:kreska pseudotaktowa	!	!	!	!	!	!
2GG/	-tu-	.	.	.	4d\	.
.	.	.	.	.	4g\	.
4C/	-te	1E/	.	.	1e\	.
4E\	.	.	.	.	.	.
1A\	tu-	.	.	.	.	.
*	*	*Xlig	*	*	*	*
=32-	=32-	=32-	=32-	=32-	=32-	=32-
!	!	!LO:TX:t=P:problem:kreska pseudotaktowa	!	!	!LO:TX:t=P:problem:kreska pseudotaktowa	!
.	.	1E/,	-a	0ryy	1e\	.
!LO:TX:t=P:problem:kreska pseudotaktowa	!	!	!	!	!	!
2G#X\	-a	.	.	.	.	.
*	*Xij	*	*	*	*	*
2r	.	1G/	Vt	.	2d\	Vt
(1C/	Vt	.	.	.	2e\	co-
=33-	=33-	=33-	=33-	=33-	=33-	=33-
*	*	*lig	*	*	*	*
!	!	!	!	!	!LO:SIC:v:t=custos f	!
.	.	1A\	co-	0ryy	2e\	-gno-
!	!	!	!	!	!LO:LB:g=original	!
!LO:TX:t=P:problem:kreska pseudotaktowa	!	!	!	!	!LO:TX:t=P:problem:kreska pseudotaktowa	!
2D/)	.	.	.	.	2f\	-ſcant
2.E\	co-	1c\	.	.	4e\	qui-
.	.	.	.	.	4f\	-a
.	.	.	.	.	4g\	non
4E\	-gno-	.	.	.	4a\	e(st)
*	*	*Xlig	*	*	*	*
=34-	=34-	=34-	=34-	=34-	=34-	=34-
!LO:SIC:v:t=custos FF	!	!	!	!	!	!
2F\	-ſcant	1c\	-gno-	0ryy	4.f\	a-
.	.	.	.	.	8f\	-li-
!LO:LB:g=original	!	!	!	!	!LO:TX:t=P:problem:kreska pseudotaktowa	!
4FF/	qui-	.	.	.	2c/	-(us)
!LO:TX:t=P:problem:kreska pseudotaktowa	!	!	!	!	!	!
4GG/	-a	.	.	.	.	.
!	!	!LO:TX:t=P:problem:kreska pseudotaktowa	!	!	!	!
*	*	*	*	*	*	*ij
4AA/	non	1c\	-ſcant	.	4c/	qui-
4BB/	est	.	.	.	4d\	-a
4.C/	a-	.	.	.	4e\	non
.	.	.	.	.	4f\	e(st)
8C/	-li-	.	.	.	.	.
=35-	=35-	=35-	=35-	=35-	=35-	=35-
!LO:TX:t=P:problem:kreska pseudotaktowa	!	!	!	!	!	!
1GG/	-us	1B\	qui-	0ryy	4.d\	a-
.	.	.	.	.	8d\	-li-
!	!	!	!	!	!LO:TX:t=P:problem:kreska pseudotaktowa	!
.	.	.	.	.	2G/	-(us)
!	!	!LO:TX:t=P:problem:kreska pseudotaktowa	!	!	!	!
*	*ij	*	*	*	*	*
4C/	qui-	1c\	-a	.	4e\	qui-
4D/	-a	.	.	.	4f\	-a
4E\	non	.	.	.	4g\	non
!LO:TX:t=P:problem:# above	!	!	!	!	!	!
4F#X\	est	.	.	.	4a\	e(st)
=36-	=36-	=36-	=36-	=36-	=36-	=36-
4.G\	a-	0d\	non	0ryy	4.g\	a-
8G\	-li-	.	.	.	8g\	-li-
!LO:TX:t=P:problem:kreska pseudotaktowa	!	!	!	!	!LO:TX:t=P:problem:kreska pseudotaktowa	!
2F#X\	-us	.	.	.	2d\	-(us)
*	*	*	*	*	*	*Xij
4G\	qui-	.	.	.	1r	.
4A\	-a	.	.	.	.	.
4B\	non	.	.	.	.	.
4G\	est	.	.	.	.	.
=37-	=37-	=37-	=37-	=37-	=37-	=37-
!	!	!LO:TX:t=P:problem:kreska pseudotaktowa	!	!	!	!
4.c\	a-	1c\	est	0ryy	4e\	qui-
.	.	.	.	.	4f\	-a
8C/	-li-	.	.	.	.	.
!LO:TX:t=P:problem:kreska pseudotaktowa	!	!	!	!	!	!
2C/	-us	.	.	.	4g\	n(on)
.	.	.	.	.	4e\	e(st)
*	*Xij	*lig	*	*	*	*
4.C/	a-	1d\	a-	.	2.f\	a-
8C/	-li-	.	.	.	.	.
!LO:TX:t=P:problem:kreska pseudotaktowa	!	!	!	!	!	!
2BB,/	-us	.	.	.	.	.
!	!	!	!	!	!LO:TX:t=P:problem:kreska pseudotaktowa	!
.	.	.	.	.	4f\	-li-
=38-	=38-	=38-	=38-	=38-	=38-	=38-
4C/	qui-	1e\	.	0ryy	2e\	-(us)
4D/	-a	.	.	.	.	.
4E\	no(n)	.	.	.	2r	.
4F\	est	.	.	.	.	.
!	!	!	!	!	!LO:TX:t=P:problem:kreska pseudotaktowa	!
*	*	*Xlig	*	*	*	*
*	*	*lig	*	*	*	*ij
4.G\	a-	1d\	.	.	4d\	qui-
.	.	.	.	.	4e\	-a
8G\	-li-	.	.	.	.	.
!LO:TX:t=P:problem:kreska pseudotaktowa	!	!	!	!	!	!
!LO:SIC:v:t=custos AA	!	!	!	!	!	!
2D/	-us	.	.	.	4f#X\	n(on)
!	!	!	!	!	!LO:TX:t=P:problem:kreska pseudotaktowa	!
.	.	.	.	.	4g\	e(st)
!LO:LB:g=original	!	!	!	!	!	!
=39-	=39-	=39-	=39-	=39-	=39-	=39-
!	!	!LO:SIC:v:t=custos B	!	!	!	!
*	*ij	*	*	*	*	*
4AA/	qui-	1c\	.	0ryy	4a\	a-
4BB/	-a	.	.	.	8g\L	-li-
!	!	!	!	!	!LO:TX:t=P:problem:# above	!
.	.	.	.	.	8f#X\J	.
!	!	!	!	!	!LO:LB:g=original	!
4C/	no(n)	.	.	.	4e\	-(us)
4AA/	est	.	.	.	4f#\	n(on)
!	!	!	!	!	!LO:TX:t=P:problem:kreska pseudotaktowa	!
!	!	!	!	!	!LO:SIC:v:t=custos e	!
!LO:TX:t=P:problem:kreska pseudotaktowa	!	!	!	!	!LO:TX:t=P:problem:# above	!
*	*	*Xlig	*	*	*	*
!	!	!LO:LB:g=original	!	!	!	!
2.BB/	a-	1B\	-li-	.	2g\	e(st)
.	.	.	.	.	4.f#X\	a-
4BB/	-li-	.	.	.	.	.
.	.	.	.	.	8f#\	-li-
=40-	=40-	=40-	=40-	=40-	=40-	=40-
!LO:TX:t=P:problem:kreska pseudotaktowa	!	!LO:TX:t=P:problem:kreska pseudotaktowa	!	!	!LO:TX:t=P:problem:kreska pseudotaktowa	!
1EE/	-us	1B\	-us	0ryy	1g#X\	-(us)
*	*Xij	*	*	*	*	*Xij
!	!	!LO:TX:t=P:problem:kreska pseudotaktowa	!	!	!	!
00r	.	1c\	qui	.	2r	.
.	.	.	.	.	2gny\	qui
=41-	=41-	=41-	=41-	=41-	=41-	=41-
.	.	1A\	pu-	0ryy	2g\	pu-
.	.	.	.	.	4f#X\	-gnet
!	!	!	!	!	!LO:TX:t=P:problem:kreska pseudotaktowa	!
.	.	.	.	.	4f#\	pro
!	!	!LO:TX:t=P:problem:kreska pseudotaktowa	!	!	!	!
.	.	1G/	-gnet	.	4g\	no-
.	.	.	.	.	8f#\L	.
.	.	.	.	.	8e\J	.
.	.	.	.	.	4.d\	.
!	!	!	!	!	!LO:TX:t=P:problem:kreska pseudotaktowa	!
.	.	.	.	.	8e\	.
=42-	=42-	=42-	=42-	=42-	=42-	=42-
.	.	1F/	per	0ryy	4f\	.
.	.	.	.	.	4c/	.
.	.	.	.	.	4d\	.
.	.	.	.	.	8c/L	.
!	!	!	!	!	!LO:TX:t=P:problem:kreska pseudotaktowa	!
.	.	.	.	.	8B-X/J	.
*	*	*lig	*	*	*	*
2r	.	1F/	no-	.	1c\	.
!LO:TX:t=P:problem:kreska pseudotaktowa	!	!	!	!	!	!
2F\	qui	.	.	.	.	.
=43-	=43-	=43-	=43-	=43-	=43-	=43-
2F\	pu-	1G/	.	0ryy	2d\	-bis
4E\	-gnet	.	.	.	2e\	-pro
4E\	pro	.	.	.	.	.
!	!	!	!	!	!LO:TX:t=P:problem:kreska pseudotaktowa	!
*	*	*Xlig	*	*	*	*
*	*	*lig	*	*	*	*
1D\	no-	1F/	.	.	2.f\	no-
.	.	.	.	.	8e\L	.
.	.	.	.	.	8d\J	.
=44-	=44-	=44-	=44-	=44-	=44-	=44-
!LO:TX:t=P:problem:kreska pseudotaktowa	!	!	!	!	!	!
1C/	-bis	1E/	.	0ryy	2g\	-bis
.	.	.	.	.	2r	.
!	!	!	!	!	!LO:TX:t=P:problem:kreska pseudotaktowa	!
*	*	*Xlig	*	*	*	*
2r	.	1F/	.	.	4.c/	ni-
.	.	.	.	.	8c/	-ſi
4.AA/	ni-	.	.	.	2f\	tu
!LO:TX:t=P:problem:kreska pseudotaktowa	!	!	!	!	!	!
8AA/	-ſi	.	.	.	.	.
=45-	=45-	=45-	=45-	=45-	=45-	=45-
!	!	!LO:TX:t=P:problem:kreska pseudotaktowa	!	!	!	!
2BB-X/	tu	1D/	-bis	0ryy	4f\	De-
!	!	!	!	!	!LO:SIC:v:t=custos g	!
.	.	.	.	.	4d\	-us
!	!	!	!	!	!LO:LB:g=original	!
!LO:N:acc=#	!	!	!	!	!	!
4.BBn/	ni-	.	.	.	4g\	no-
!	!	!	!	!	!LO:TX:t=P:problem:kreska pseudotaktowa	!
.	.	.	.	.	4g\	-ſter
!LO:TX:t=P:problem:kreska pseudotaktowa	!	!	!	!	!	!
8BB/	-ſi	.	.	.	.	.
2C/	tu	1E/	ni-	.	4g\	De-
.	.	.	.	.	4e\	-(us)
4.C#X/	ni-	.	.	.	4a\	no-
!	!	!	!	!	!LO:TX:t=P:problem:kreska pseudotaktowa	!
.	.	.	.	.	4a\	-ſter
!LO:TX:t=P:problem:kreska pseudotaktowa	!	!	!	!	!	!
8C#/	-ſi	.	.	.	.	.
=46-	=46-	=46-	=46-	=46-	=46-	=46-
!	!	!LO:TX:t=P:problem:kreska pseudotaktowa	!	!	!	!
2D/	tu	1F/	-ſi	0ryy	4.d\	De-
.	.	.	.	.	8e\	.
4BB-X/	De-	.	.	.	2.f\	.
!LO:TX:t=P:problem:kreska pseudotaktowa	!	!	!	!	!	!
!LO:SIC:v:t=custos GG	!	!	!	!	!	!
4AA/	-us	.	.	.	.	.
!LO:LB:g=original	!	!	!	!	!	!
*	*	*lig	*	*	*	*
4GG/	no-	1G/	tu	.	.	.
8AA/L	.	.	.	.	4f\	-us
8BB-X/J	.	.	.	.	.	.
!LO:TX:t=P:problem:kreska pseudotaktowa	!	!	!	!	!	!
2C/	.	.	.	.	(4f\	no-
!	!	!	!	!	!LO:TX:t=P:problem:kreska pseudotaktowa	!
.	.	.	.	.	4e\)	.
=47-	=47-	=47-	=47-	=47-	=47-	=47-
2FF/	-ſter	1A\	.	0ryy	2f\	-ſter,
2r	.	.	.	.	4.e\	ni-
!	!	!	!	!	!LO:TX:t=P:problem:kreska pseudotaktowa	!
.	.	.	.	.	8f\	-ſi
!LO:TX:t=P:problem:kreska pseudotaktowa	!	!	!	!	!	!
*	*	*Xlig	*	*	*	*
*	*	*lig	*	*	*	*
1r	.	1G/	De-	.	2g\	tu
*	*	*	*	*	*	*ij
.	.	.	.	.	4.d\	ni-
!	!	!	!	!	!LO:TX:t=P:problem:kreska pseudotaktowa	!
.	.	.	.	.	8e\	-ſi
=48-	=48-	=48-	=48-	=48-	=48-	=48-
2r	.	1F/	.	0ryy	2f\	tu
*	*	*	*	*	*	*Xij
4.AA/	ni-	.	.	.	4f\	De-
.	.	.	.	.	4a\	-us
8BB/	-ſi	.	.	.	.	.
!LO:TX:t=P:problem:kreska pseudotaktowa	!	!	!	!	!	!
*	*	*Xlig	*	*	*	*
*	*	*lig	*	*	*	*
2C/	tu	1E/	-us	.	2g\	no-
!	!	!	!	!	!LO:TX:t=P:problem:kreska pseudotaktowa	!
4C#X/	De-	.	.	.	2e\	-ſter
!LO:TX:t=P:problem:kreska pseudotaktowa	!	!	!	!	!	!
4C#/	-us	.	.	.	.	.
=49-	=49-	=49-	=49-	=49-	=49-	=49-
4.D/	no-	1D/	.	0ryy	2r	.
8C/	.	.	.	.	.	.
2BB/	.	.	.	.	4.f#X\	ni-
.	.	.	.	.	8g#X\	-ſi
!	!	!	!	!	!LO:TX:t=P:problem:kreska pseudotaktowa	!
!LO:TX:t=P:problem:kreska pseudotaktowa	!	!	!	!	!LO:TX:t=P:problem:# above	!
*	*	*Xlig	*	*	*	*
!	!	!LO:TX:t=P:problem:kreska pseudotaktowa	!	!	!	!
2AA/	-ſter	1E/	no-	.	2a\	tu
*	*	*	*	*	*	*ij
4.AA/	ni-	.	.	.	4.c/	ni-
!LO:TX:t=P:problem:kreska pseudotaktowa	!	!	!	!	!LO:TX:t=P:problem:kreska pseudotaktowa	!
8BB/	-ſi	.	.	.	8d\	-ſi
=50-	=50-	=50-	=50-	=50-	=50-	=50-
2C/	tu	0E/	-ſter	0ryy	1e\	tu
4GG#X/	De-	.	.	.	.	.
!LO:TX:t=P:problem:kreska pseudotaktowa	!	!	!	!	!	!
4GG#/	-us	.	.	.	.	.
8AA/L	no-	.	.	.	2r	.
8BB/	.	.	.	.	.	.
8C/	.	.	.	.	.	.
8D/J	.	.	.	.	.	.
!LO:TX:t=P:problem:kreska pseudotaktowa	!	!	!	!	!	!
2E\	.	.	.	.	4.B/	ni-
!	!	!	!	!	!LO:TX:t=P:problem:kreska pseudotaktowa	!
!	!	!	!	!	!LO:SIC:v:t=custos c	!
.	.	.	.	.	8e\	-ſi
!	!	!	!	!	!LO:LB:g=original	!
=51-	=51-	=51-	=51-	=51-	=51-	=51-
*	*	*	*ij	*	*	*
2AA/	-ſter	0E/	no-	0ryy	2c/	tu
*	*	*	*	*	*	*Xij
4.B\	ni-	.	.	.	4G#X/	De-
!	!	!	!	!	!LO:TX:t=P:problem:kreska pseudotaktowa	!
.	.	.	.	.	4G#/	-us
!LO:TX:t=P:problem:kreska pseudotaktowa	!	!	!	!	!	!
8d\	-ſi	.	.	.	.	.
2c\	tu	.	.	.	8A/L	no-
.	.	.	.	.	8B/	.
.	.	.	.	.	8c/	.
.	.	.	.	.	8d/J	.
!	!	!	!	!	!LO:TX:t=P:problem:kreska pseudotaktowa	!
4G#X\	De-	.	.	.	2e\	.
!LO:TX:t=P:problem:kreska pseudotaktowa	!	!	!	!	!	!
!LO:SIC:v:t=custos A	!	!	!	!	!	!
4G#\	-us	.	.	.	.	.
!LO:PB:g=original	!	!	!	!	!	!
=52-	=52-	=52-	=52-	=52-	=52-	=52-
2A\	no-	00E/;	-ſter.	0ryy	2c/	-ſter
*	*	*	*Xij	*	*	*
!LO:TX:t=P:problem:kreska pseudotaktowa	!	!	!	!	!	!
2G#X\	-ſter	.	.	.	4B/	ni-
!	!	!	!	!	!LO:TX:t=P:problem:kreska pseudotaktowa	!
.	.	.	.	.	4B/	-ſi
2AA/	De-	.	.	.	8A/L	tu
.	.	.	.	.	8B/	.
.	.	.	.	.	8c/	.
.	.	.	.	.	8d/J	.
2GG#X/	-us	.	.	.	4.e\	De-
!	!	!	!	!	!LO:TX:t=P:problem:kreska pseudotaktowa	!
.	.	.	.	.	8d\	-(us)
=53-	=53-	=53-	=53-	=53-	=53-	=53-
!LO:TX:t=P:problem:kreska pseudotaktowa	!	!	!	!	!	!
1AA/	no-	.	.	0ryy	1c\	no-
1EE/	-ſter.	.	.	.	1B/;	-ſter.
==	==	==	==	==	==	==
*-	*-	*-	*-	*-	*-	*-
!!!system-decoration: [(s1,s2,s3,s4)]
!!!RDF**kern: > = above
!!!RDF**kern: < = below
!!!EED: Leszek Kubiak
!!!EST: 2021-03-19
!!!ENC: Katarzyna Serwa
!!!END: 2021-03-04
